24x24/apps/com.github.bartzaalberg.lottery.svg

<svg xmlns="http://www.w3.org/2000/svg" width="24" height="24" version="1">
 <circle style="fill:#c2352a" cx="12" cy="12" r="10"/>
 <path style="opacity:0.2;fill:#f4f4f7" d="m 12,2 a 10,10 0 0 0 -10,10 10,10 0 0 0 0.01075,0.291 10,10 0 0 1 9.989,-9.791 10,10 0 0 1 9.9895,9.709 10,10 0 0 0 0.0105,-0.209 10,10 0 0 0 -10,-10 z"/>
 <path style="opacity:0.2" d="M 21.9895,12.209 A 10,10 0 0 1 12,22 10,10 0 0 1 2.011,12.291 10,10 0 0 0 2,12.5 a 10,10 0 0 0 10,10 10,10 0 0 0 10,-10 10,10 0 0 0 -0.0105,-0.291 z"/>
 <path style="opacity:0.2" d="m 12,6.4999032 a 1,1 0 0 0 -1,1 1,1 0 0 0 0.283203,0.6972656 1,1 0 0 0 0.002,0.00195 c 0.03087,0.057526 0.05357,0.1201203 0.0918,0.171875 -0.597864,1.0119051 -1.195105,2.4234571 -1.7929686,3.3847661 -0.2989325,0.455358 -0.7469135,0.744141 -1.1953125,0.744141 -0.3985765,0 -0.7977645,-0.237444 -1.046875,-0.541016 C 7.059595,11.631367 6.6436575,10.907567 6.3085938,10.449123 A 1,1 0 0 0 7,9.4999032 a 1,1 0 0 0 -1,-1 1,1 0 0 0 -1,1 1,1 0 0 0 0.4726562,0.8476568 l 0.125,0.34961 c 0.2989326,1.163691 0.5487243,2.829055 0.8476563,4.144531 0.049823,0.202381 0.199149,0.355469 0.3984375,0.355469 1.69395,0.20238 3.437868,0.302734 5.181641,0.302734 1.743772,0 3.48769,-0.100354 5.18164,-0.302734 0.149466,0 0.297836,-0.153088 0.347657,-0.355469 0.298932,-1.315476 0.548724,-2.98084 0.847656,-4.144531 l 0.11914,-0.343751 a 1,1 0 0 0 0.22461,-0.189453 c 0.0093,0.0013 0.03412,-0.01004 0.02539,-0.02734 A 1,1 0 0 0 19,9.4999032 a 1,1 0 0 0 -1,-1 1,1 0 0 0 -1,1 1,1 0 0 0 0.730469,0.9609378 c -0.374635,0.451712 -0.822267,1.250841 -1.121094,1.597657 -0.298932,0.303572 -0.648299,0.441406 -1.046875,0.441406 -0.498221,0 -0.896382,-0.288783 -1.195312,-0.744141 -0.597866,-0.961309 -1.197057,-2.372861 -1.794922,-3.3847659 0.01916,-0.025937 0.02946,-0.058445 0.04687,-0.085938 4.71e-4,-7.433e-4 0.0015,-0.00121 0.002,-0.00195 A 1,1 0 0 0 13,7.4999032 a 1,1 0 0 0 -1,-1 z m 5.267578,9.5078128 c -0.04922,-0.01068 -0.105469,-0.01026 -0.167969,0.002 -1.667255,0.243052 -3.371589,0.489111 -5.076171,0.490234 C 10.303021,16.50105 8.5831346,16.25498 6.9003906,16.00967 6.7003901,15.960835 6.5,16.156123 6.5,16.351466 l 0,1.025391 c 0,0.24418 0.1503906,0.488274 0.4003906,0.537109 3.3500004,0.781379 6.8492184,0.781379 10.1992184,0 0.2,-0.04883 0.400391,-0.292929 0.400391,-0.537109 l 0,-1.025391 c 0,-0.183135 -0.08477,-0.311701 -0.232422,-0.34375 z"/>
 <path style="fill:#ffe15b" d="M 12 6 A 1 1 0 0 0 11 7 A 1 1 0 0 0 11.283203 7.6972656 A 1 1 0 0 0 11.285156 7.6992188 C 11.316029 7.756745 11.33873 7.8193391 11.376953 7.8710938 C 10.779089 8.8829989 10.181848 10.29455 9.5839844 11.255859 C 9.2850519 11.711217 8.8370709 12 8.3886719 12 C 7.9900954 12 7.5909074 11.762556 7.3417969 11.458984 C 7.059595 11.131463 6.6436575 10.407663 6.3085938 9.9492188 A 1 1 0 0 0 7 9 A 1 1 0 0 0 6 8 A 1 1 0 0 0 5 9 A 1 1 0 0 0 5.4726562 9.8476562 L 5.5976562 10.197266 C 5.8965888 11.360957 6.1463805 13.026321 6.4453125 14.341797 C 6.495135 14.544178 6.6444615 14.697266 6.84375 14.697266 C 8.5377 14.899646 10.281618 15 12.025391 15 C 13.769163 15 15.513081 14.899646 17.207031 14.697266 C 17.356497 14.697266 17.504867 14.544178 17.554688 14.341797 C 17.85362 13.026321 18.103412 11.360957 18.402344 10.197266 L 18.521484 9.8535156 A 1 1 0 0 0 18.746094 9.6640625 C 18.75541 9.6653989 18.780213 9.6540176 18.771484 9.6367188 A 1 1 0 0 0 19 9 A 1 1 0 0 0 18 8 A 1 1 0 0 0 17 9 A 1 1 0 0 0 17.730469 9.9609375 C 17.355834 10.412649 16.908202 11.211778 16.609375 11.558594 C 16.310443 11.862166 15.961076 12 15.5625 12 C 15.064279 12 14.666118 11.711217 14.367188 11.255859 C 13.769322 10.29455 13.170131 8.8829988 12.572266 7.8710938 C 12.591422 7.8451564 12.601726 7.8126492 12.619141 7.7851562 C 12.619612 7.7844128 12.620624 7.7839476 12.621094 7.7832031 A 1 1 0 0 0 13 7 A 1 1 0 0 0 12 6 z M 17.267578 15.507812 C 17.218359 15.49713 17.162109 15.497556 17.099609 15.509766 C 15.432354 15.752818 13.72802 15.998877 12.023438 16 C 10.303021 16.001134 8.5831346 15.755076 6.9003906 15.509766 C 6.7003901 15.460931 6.5 15.656219 6.5 15.851562 L 6.5 16.876953 C 6.5 17.121133 6.6503906 17.365227 6.9003906 17.414062 C 10.250391 18.195441 13.749609 18.195441 17.099609 17.414062 C 17.299609 17.365233 17.5 17.121133 17.5 16.876953 L 17.5 15.851562 C 17.5 15.668427 17.415234 15.539861 17.267578 15.507812 z"/>
</svg>

<svg xmlns="http://www.w3.org/2000/svg" width="24" height="24" version="1"><circle style="fill:#c2352a" cx="12" cy="12" r="10"/><path style="opacity:.2;fill:#f4f4f7" d="M12 2A10 10 0 0 0 2 12a10 10 0 0 0 .01.291A10 10 0 0 1 12 2.5a10 10 0 0 1 9.99 9.709A10 10 0 0 0 22 12 10 10 0 0 0 12 2z"/><path style="opacity:.2" d="M21.99 12.209A10 10 0 0 1 12 22a10 10 0 0 1-9.989-9.709A10 10 0 0 0 2 12.5a10 10 0 0 0 10 10 10 10 0 0 0 10-10 10 10 0 0 0-.01-.291z"/><path style="opacity:.2" d="M12 6.5a1 1 0 0 0-1 1 1 1 0 0 0 .283.697 1 1 0 0 0 .002.002c.031.058.054.12.092.172-.598 1.012-1.195 2.423-1.793 3.385-.299.455-.747.744-1.195.744-.399 0-.798-.238-1.047-.541-.282-.328-.698-1.051-1.033-1.51A1 1 0 0 0 7 9.5a1 1 0 0 0-1-1 1 1 0 0 0-1 1 1 1 0 0 0 .473.849l.125.35c.299 1.163.548 2.828.847 4.144.05.202.2.355.399.355 1.694.203 3.438.303 5.181.303 1.744 0 3.488-.1 5.182-.303.15 0 .298-.153.348-.355.299-1.316.548-2.981.847-4.145l.12-.344a1 1 0 0 0 .224-.189c.01.001.034-.01.025-.027A1 1 0 0 0 19 9.5a1 1 0 0 0-1-1 1 1 0 0 0-1 1 1 1 0 0 0 .73.96c-.374.453-.822 1.252-1.12 1.598a1.41 1.41 0 0 1-1.047.442c-.499 0-.897-.289-1.196-.744-.598-.962-1.197-2.373-1.795-3.385.02-.026.03-.058.047-.086l.002-.002A1 1 0 0 0 13 7.5a1 1 0 0 0-1-1zm5.268 9.508a.416.416 0 0 0-.168.002c-1.668.243-3.372.489-5.077.49-1.72.001-3.44-.245-5.123-.49-.2-.05-.4.146-.4.341v1.026c0 .244.15.488.4.537 3.35.781 6.85.781 10.2 0 .2-.049.4-.293.4-.537V16.35c0-.183-.085-.311-.232-.343z"/><path style="fill:#ffe15b" d="M12 6a1 1 0 0 0-1 1 1 1 0 0 0 .283.697 1 1 0 0 0 .002.002c.031.058.054.12.092.172-.598 1.012-1.195 2.424-1.793 3.385-.299.455-.747.744-1.195.744-.399 0-.798-.237-1.047-.541-.282-.328-.698-1.051-1.033-1.51A1 1 0 0 0 7 9a1 1 0 0 0-1-1 1 1 0 0 0-1 1 1 1 0 0 0 .473.848l.125.35c.299 1.163.548 2.828.847 4.144.05.202.2.355.399.355 1.694.203 3.438.303 5.181.303 1.744 0 3.488-.1 5.182-.303.15 0 .298-.153.348-.355.299-1.316.548-2.981.847-4.145l.12-.343a1 1 0 0 0 .224-.19c.01.001.034-.01.025-.027A1 1 0 0 0 19 9a1 1 0 0 0-1-1 1 1 0 0 0-1 1 1 1 0 0 0 .73.96c-.374.453-.822 1.252-1.12 1.599a1.41 1.41 0 0 1-1.047.441c-.499 0-.897-.289-1.196-.744-.598-.961-1.197-2.373-1.795-3.385.02-.026.03-.058.047-.086l.002-.002A1 1 0 0 0 13 7a1 1 0 0 0-1-1zm5.268 9.508a.416.416 0 0 0-.168.002c-1.668.243-3.372.489-5.077.49-1.72.001-3.44-.245-5.123-.49-.2-.05-.4.146-.4.342v1.025c0 .244.15.488.4.537 3.35.781 6.85.781 10.2 0 .2-.049.4-.293.4-.537v-1.025c0-.184-.085-.312-.232-.344z"/></svg>
